static/fonts/fa/draw-polygon.svg

<svg xmlns="http://www.w3.org/2000/svg" viewBox="0 0 448 512"><!--! Font Awesome Free 6.0.0-beta3 by @fontawesome - https://fontawesome.com License - https://fontawesome.com/license/free (Icons: CC BY 4.0, Fonts: SIL OFL 1.1, Code: MIT License) Copyright 2021 Fonticons, Inc. --><path d="M384 352c-.375 0-.6367 .1143-1.012 .1143l-39.22-65.35C348.9 277.6 352 267.2 352 256c0-11.25-3.108-21.64-8.233-30.77l39.22-65.35C383.4 159.9 383.6 160 384 160c35.38 0 64-28.62 64-64s-28.62-64-64-64c-23.62 0-43.1 13-55.12 32H119.1C107.1 45 87.62 32 64 32C28.62 32 0 60.62 0 96c0 23.62 13 43.1 32 55.12v209.8C13 372 0 392.4 0 416c0 35.38 28.62 64 64 64c23.62 0 43.1-13 55.12-32h209.8C340 467 360.4 480 384 480c35.38 0 64-28.62 64-64S419.4 352 384 352zM96 360.9v-209.8C105.6 145.5 113.5 137.6 119.1 128h208.4l-38.48 64.11C288.6 192.1 288.4 192 288 192c-35.38 0-64 28.62-64 64s28.62 64 64 64c.375 0 .6367-.1143 1.012-.1143L327.5 384H119.1C113.5 374.4 105.6 366.5 96 360.9zM272 256c0-8.875 7.125-16 16-16s16 7.125 16 16c0 8.875-7.125 16-16 16S272 264.9 272 256zM400 96c0 8.875-7.125 16-16 16S368 104.9 368 96s7.125-16 16-16S400 87.12 400 96zM64 80c8.875 0 16 7.125 16 16S72.88 112 64 112S48 104.9 48 96S55.12 80 64 80zM48 416c0-8.875 7.125-16 16-16s16 7.125 16 16S72.88 432 64 432S48 424.9 48 416zM384 432c-8.875 0-16-7.125-16-16s7.125-16 16-16s16 7.125 16 16S392.9 432 384 432z"/></svg>

<svg xmlns="http://www.w3.org/2000/svg" viewBox="0 0 448 512"><!-- Font Awesome Free 5.15.4 by @fontawesome - https://fontawesome.com License - https://fontawesome.com/license/free (Icons: CC BY 4.0, Fonts: SIL OFL 1.1, Code: MIT License) --><path d="M384 352c-.35 0-.67.1-1.02.1l-39.2-65.32c5.07-9.17 8.22-19.56 8.22-30.78s-3.14-21.61-8.22-30.78l39.2-65.32c.35.01.67.1 1.02.1 35.35 0 64-28.65 64-64s-28.65-64-64-64c-23.63 0-44.04 12.95-55.12 32H119.12C108.04 44.95 87.63 32 64 32 28.65 32 0 60.65 0 96c0 23.63 12.95 44.04 32 55.12v209.75C12.95 371.96 0 392.37 0 416c0 35.35 28.65 64 64 64 23.63 0 44.04-12.95 55.12-32h209.75c11.09 19.05 31.49 32 55.12 32 35.35 0 64-28.65 64-64 .01-35.35-28.64-64-63.99-64zm-288 8.88V151.12A63.825 63.825 0 0 0 119.12 128h208.36l-38.46 64.1c-.35-.01-.67-.1-1.02-.1-35.35 0-64 28.65-64 64s28.65 64 64 64c.35 0 .67-.1 1.02-.1l38.46 64.1H119.12A63.748 63.748 0 0 0 96 360.88zM272 256c0-8.82 7.18-16 16-16s16 7.18 16 16-7.18 16-16 16-16-7.18-16-16zM400 96c0 8.82-7.18 16-16 16s-16-7.18-16-16 7.18-16 16-16 16 7.18 16 16zM64 80c8.82 0 16 7.18 16 16s-7.18 16-16 16-16-7.18-16-16 7.18-16 16-16zM48 416c0-8.82 7.18-16 16-16s16 7.18 16 16-7.18 16-16 16-16-7.18-16-16zm336 16c-8.82 0-16-7.18-16-16s7.18-16 16-16 16 7.18 16 16-7.18 16-16 16z"/></svg>
